X: 4
T: The Monaghan Twig
R: reel
M: 4/4
L: 1/8
K: Amix
~A3G Acec|~A3G EDEB|~A3B cded|BAGB dfed|~A3B cAec|~A3G EDEB|~A3B cded|BAGB dfeA|(3Bcd ef gfed|(3Bcd ef edeA|(3Bcd ef gfge|dBGB dfeA|(3Bcd ed cded|cAAB cdef|gfge dfed|BAGB dfec||!


Tune 1070	Setting 1070

